assets/images/circle.svg

<svg width="81" height="80" viewBox="0 0 81 80" fill="none" xmlns="http://www.w3.org/2000/svg">
<path fill-rule="evenodd" clip-rule="evenodd" d="M61.1251 19.2079C49.6981 7.78085 30.968 7.78085 19.5409 19.2079C8.11385 30.635 8.11385 49.365 19.5409 60.7921C30.968 72.2191 49.6981 72.2191 61.1251 60.7921C72.5522 49.365 72.5522 30.635 61.1251 19.2079ZM12.019 11.686C27.6003 -3.89533 53.0657 -3.89533 68.647 11.686C84.2283 27.2673 84.2283 52.7327 68.647 68.314C53.0657 83.8953 27.6003 83.8953 12.019 68.314C-3.56232 52.7327 -3.56232 27.2673 12.019 11.686Z" fill="#174463"/>
</svg>

<svg width="81" height="80" fill="none" xmlns="http://www.w3.org/2000/svg"><path fill-rule="evenodd" clip-rule="evenodd" d="M61.125 19.208c-11.427-11.427-30.157-11.427-41.584 0-11.427 11.427-11.427 30.157 0 41.584 11.427 11.427 30.157 11.427 41.584 0 11.427-11.427 11.427-30.157 0-41.584zM12.02 11.686c15.581-15.581 41.047-15.581 56.628 0 15.581 15.581 15.581 41.047 0 56.628-15.581 15.581-41.047 15.581-56.628 0-15.581-15.581-15.581-41.047 0-56.628z" fill="#174463"/></svg>
